svg/fluentui-system-icons/ic_fluent_call_pause_20_regular.svg

<svg width="20" height="20" viewBox="0 0 20 20" fill="none" xmlns="http://www.w3.org/2000/svg">
<path d="M3.55101 2.44202C4.40494 1.96424 5.49406 1.85202 6.53544 2.11583C7.04218 2.2442 7.47512 2.57275 7.73513 3.02624L8.70699 4.72132C9.33337 5.81383 9.04934 7.20172 8.04412 7.96032L7.44299 8.41397C7.1603 8.62731 7.04329 8.92925 7.10089 9.18459C7.28407 9.99662 7.68784 10.7504 8.25304 11.3056C8.42164 11.4712 8.71835 11.528 9.04092 11.4046L9.70661 11.15C10.8657 10.7066 12.1747 11.1807 12.781 12.2635L13.7345 13.9662C13.9975 14.4358 14.0415 14.9971 13.8548 15.502C13.4838 16.505 12.7694 17.3135 11.8903 17.7186C10.9973 18.1301 9.95159 18.1135 9.0056 17.4824C7.50831 16.4836 5.70298 14.8038 4.06815 12.0013C2.41207 9.16232 1.99456 6.74479 2.04156 4.94345C2.07166 3.78953 2.68184 2.92832 3.55101 2.44202ZM4.03928 3.31471C3.45254 3.64299 3.06139 4.19646 3.04122 4.96953C2.99912 6.58303 3.36852 8.81731 4.93193 11.4974C6.49007 14.1685 8.18976 15.7361 9.56054 16.6505C10.2001 17.0772 10.8752 17.0853 11.4718 16.8104C12.0825 16.529 12.6267 15.9397 12.9169 15.1551C13.002 14.9249 12.982 14.6689 12.862 14.4548L11.9085 12.7521C11.5447 12.1024 10.7594 11.818 10.0639 12.084L9.39819 12.3386C8.8175 12.5608 8.0737 12.5311 7.55233 12.019C6.83828 11.3177 6.34709 10.3874 6.1254 9.40464C5.96194 8.67998 6.32141 8.00758 6.84061 7.61576L7.44174 7.16211C8.04487 6.70695 8.21529 5.87422 7.83946 5.21871L6.8676 3.52363C6.74239 3.30524 6.5339 3.14703 6.28987 3.08521C5.46263 2.87564 4.64126 2.9779 4.03928 3.31471ZM13 2.49927C13 2.22313 12.7761 1.99927 12.5 1.99927C12.2239 1.99927 12 2.22313 12 2.49927V8.49927C12 8.77541 12.2239 8.99927 12.5 8.99927C12.7761 8.99927 13 8.77541 13 8.49927V2.49927ZM16 2.49927C16 2.22313 15.7761 1.99927 15.5 1.99927C15.2239 1.99927 15 2.22313 15 2.49927V8.49927C15 8.77541 15.2239 8.99927 15.5 8.99927C15.7761 8.99927 16 8.77541 16 8.49927V2.49927Z" fill="#212121"/>
</svg>

<svg xmlns="http://www.w3.org/2000/svg" width="20" height="20"><path d="M3.551 2.442c.854-.478 1.943-.59 2.984-.326.507.128.94.457 1.2.91l.972 1.695a2.5 2.5 0 0 1-.663 3.24l-.601.453c-.283.213-.4.515-.342.77.183.813.587 1.566 1.152 2.122.169.165.465.222.788.099l.666-.255a2.5 2.5 0 0 1 3.074 1.114l.954 1.702c.263.47.306 1.031.12 1.536-.371 1.003-1.086 1.812-1.965 2.217-.893.411-1.938.394-2.884-.237-1.498-.998-3.303-2.678-4.938-5.48-1.656-2.84-2.073-5.257-2.026-7.059.03-1.153.64-2.015 1.509-2.501Zm.488.873c-.586.328-.978.881-.998 1.655-.042 1.613.328 3.847 1.89 6.527 1.56 2.671 3.259 4.24 4.63 5.154.64.426 1.314.434 1.91.16.611-.282 1.156-.871 1.446-1.656a.838.838 0 0 0-.055-.7l-.954-1.703a1.5 1.5 0 0 0-1.844-.668l-.666.255c-.58.222-1.324.192-1.846-.32-.714-.701-1.205-1.632-1.427-2.614-.163-.725.196-1.397.716-1.79l.6-.453A1.5 1.5 0 0 0 7.84 5.22l-.971-1.695a.929.929 0 0 0-.578-.439c-.827-.21-1.649-.107-2.25.23ZM13 2.499a.5.5 0 0 0-1 0v6a.5.5 0 0 0 1 0v-6Zm3 0a.5.5 0 0 0-1 0v6a.5.5 0 0 0 1 0v-6Z"/></svg>
